; generated by Slic3r 1.3.0 on 2020-02-13 at 20:22:10

; external perimeters extrusion width = 0.44mm (3.38mm^3/s)
; perimeters extrusion width = 0.48mm (7.54mm^3/s)
; infill extrusion width = 0.48mm (10.05mm^3/s)
; solid infill extrusion width = 0.48mm (2.51mm^3/s)
; top infill extrusion width = 0.48mm (1.88mm^3/s)

M107
M190 S65 ; set bed temperature and wait for it to be reached
M104 S205 ; set temperature
G28 ; home all axes
G1 Z5 F5000 ; lift nozzle

; Filament gcode

M109 S205 ; set temperature and wait for it to be reached
G21 ; set units to millimeters
G90 ; use absolute coordinates
M82 ; use absolute distances for extrusion
G92 E0
G1 Z0.400 F7800.000
G1 E-2.00000 F2400.00000
G92 E0
G1 X83.797 Y92.754 F7800.000
G1 E2.00000 F2400.00000
G1 F1800
G1 X86.425 Y91.572 E2.34212
G1 X96.405 Y89.484 E3.55313
G1 X97.781 Y89.342 E3.71733
G1 X122.220 Y89.342 E6.61983
G1 X123.595 Y89.484 E6.78403
G1 X133.575 Y91.572 E7.99504
G1 X135.720 Y92.427 E8.26926
G1 X137.449 Y93.958 E8.54349
G1 X138.557 Y95.983 E8.81771
G1 X138.877 Y98.846 E9.15983
G1 X138.654 Y100.967 E9.41309
G1 X138.370 Y102.316 E9.57688
G1 X130.772 Y125.996 E12.53039
G1 X129.699 Y128.040 E12.80461
G1 X127.997 Y129.600 E13.07884
G1 X125.867 Y130.491 E13.35306
G1 X124.379 Y130.658 E13.53088
G1 X95.621 Y130.658 E16.94633
G1 X93.346 Y130.261 E17.22056
G1 X91.341 Y129.117 E17.49478
G1 X89.841 Y127.361 E17.76901
G1 X89.228 Y125.996 E17.94683
G1 X81.630 Y102.316 E20.90033
G1 X81.346 Y100.967 E21.06413
G1 X81.123 Y98.846 E21.31738
G1 X81.280 Y96.542 E21.59161
G1 X82.208 Y94.428 E21.86583
G1 X83.756 Y92.797 E22.13293
G1 E20.13293 F2400.00000
G92 E0
G1 X122.551 Y122.116 F7800.000
G1 E2.00000 F2400.00000
G1 F1800
G1 X121.449 Y122.116 E2.13080
G1 X121.449 Y109.973 E3.57301
G1 X121.472 Y109.973 E3.57572
G1 X121.807 Y106.786 E3.95627
G1 X122.193 Y106.786 E4.00209
G1 X122.528 Y109.973 E4.38264
G1 X122.551 Y109.973 E4.38536
G1 X122.551 Y122.056 E5.82044
G1 E3.82044 F2400.00000
G92 E0
G1 X122.454 Y99.973 F7800.000
G1 E2.00000 F2400.00000
G1 F1800
G1 X130.150 Y99.973 E2.91400
G1 X129.639 Y101.545 E3.11039
G1 X128.765 Y103.059 E3.31799
G1 X127.595 Y104.358 E3.52561
G1 X126.181 Y105.386 E3.73322
G1 X124.584 Y106.097 E3.94082
G1 X122.000 Y106.646 E4.25455
G1 X119.416 Y106.097 E4.56828
G1 X117.819 Y105.386 E4.77589
G1 X116.405 Y104.358 E4.98350
G1 X115.235 Y103.059 E5.19110
G1 X114.361 Y101.545 E5.39871
G1 X113.850 Y99.973 E5.59510
G1 X121.546 Y99.973 E6.50911
G1 X121.744 Y98.090 E6.73393
G1 X121.825 Y97.950 E6.75315
G1 X121.966 Y97.885 E6.77160
G1 X122.036 Y97.886 E6.77986
G1 X122.131 Y97.918 E6.79175
G1 X122.212 Y97.990 E6.80465
G1 X122.256 Y98.090 E6.81759
G1 X122.448 Y99.913 E7.03529
G1 X123.097 Y99.258 F7800.000
G1 F1800
G1 X130.963 Y99.258 E7.96947
G1 X130.881 Y100.032 E8.06185
G1 X130.295 Y101.837 E8.28729
G1 X129.346 Y103.481 E8.51272
G1 X128.075 Y104.892 E8.73817
G1 X126.540 Y106.008 E8.96360
G1 X124.806 Y106.780 E9.18904
G1 X122.952 Y107.174 E9.41415
G1 X123.171 Y109.258 E9.66311
G1 X123.265 Y109.258 E9.67427
G1 X123.265 Y122.830 E11.28612
G1 X120.735 Y122.830 E11.58655
G1 X120.735 Y109.258 E13.19840
G1 X120.829 Y109.258 E13.20956
G1 X121.048 Y107.174 E13.45852
G1 X119.194 Y106.780 E13.68363
G1 X117.460 Y106.008 E13.90907
G1 X115.924 Y104.892 E14.13451
G1 X114.654 Y103.481 E14.35994
G1 X113.705 Y101.837 E14.58538
G1 X113.119 Y100.032 E14.81082
G1 X113.037 Y99.258 E14.90320
G1 X120.903 Y99.258 E15.83738
G1 X121.042 Y97.941 E15.99475
G1 X121.105 Y97.746 E16.01908
G1 X121.207 Y97.568 E16.04342
G1 X121.344 Y97.416 E16.06774
G1 X121.510 Y97.296 E16.09205
G1 X121.697 Y97.212 E16.11639
G1 X121.894 Y97.171 E16.14024
G1 X122.113 Y97.172 E16.16634
G1 X122.303 Y97.212 E16.18931
G1 X122.490 Y97.296 E16.21365
G1 X122.656 Y97.416 E16.23797
G1 X122.793 Y97.568 E16.26228
G1 X122.895 Y97.746 E16.28662
G1 X122.958 Y97.941 E16.31095
G1 X123.091 Y99.199 E16.46119
G1 X123.740 Y98.544 F7800.000
G1 F1800
G1 X131.756 Y98.544 E17.41320
G1 X131.584 Y100.181 E17.60870
G1 X130.951 Y102.129 E17.85197
G1 X129.927 Y103.903 E18.09523
G1 X128.556 Y105.425 E18.33850
G1 X126.899 Y106.629 E18.58177
G1 X125.028 Y107.463 E18.82503
G1 X123.729 Y107.738 E18.98269
G1 X123.814 Y108.544 E19.07891
G1 X123.979 Y108.544 E19.09852
G1 X123.979 Y123.544 E20.88000
G1 X120.021 Y123.544 E21.35007
G1 X120.021 Y108.544 E23.13155
G1 X120.186 Y108.544 E23.15115
G1 X120.271 Y107.738 E23.24738
G1 X118.972 Y107.463 E23.40503
G1 X117.101 Y106.629 E23.64830
G1 X115.444 Y105.425 E23.89157
G1 X114.073 Y103.903 E24.13483
G1 X113.049 Y102.129 E24.37810
G1 X112.416 Y100.181 E24.62137
G1 X112.244 Y98.544 E24.81686
G1 X120.260 Y98.544 E25.76888
G1 X120.339 Y97.791 E25.85880
G1 X120.449 Y97.454 E25.90095
G1 X120.626 Y97.146 E25.94311
G1 X120.864 Y96.883 E25.98526
G1 X121.151 Y96.674 E26.02741
G1 X121.475 Y96.530 E26.06957
G1 X121.821 Y96.456 E26.11155
G1 X122.191 Y96.459 E26.15548
G1 X122.525 Y96.530 E26.19599
G1 X122.849 Y96.674 E26.23815
G1 X123.136 Y96.883 E26.28030
G1 X123.374 Y97.146 E26.32245
G1 X123.551 Y97.454 E26.36460
G1 X123.661 Y97.791 E26.40676
G1 X123.734 Y98.485 E26.48956
G1 X123.763 Y98.944 F7800.000
G1 E24.48956 F2400.00000
G92 E0
G1 X122.000 Y99.482 F7800.000
G1 E2.00000 F2400.00000
G1 F1800
G1 X122.000 Y99.765 E2.00270
G1 F1800
G1 X122.000 Y100.330 E2.01702
G1 X122.779 Y100.964 F7800.000
G1 F1800
G1 X122.556 Y100.964 E2.04403
G1 X122.556 Y101.188 E2.07104
G1 X123.334 Y100.409 E2.20419
G1 X124.362 Y100.409 E2.32844
G1 X119.166 Y105.605 E3.21668
G1 X119.360 Y105.691 E3.24235
G1 X119.977 Y105.822 E3.31854
G1 X125.390 Y100.409 E4.24394
G1 X126.418 Y100.409 E4.36819
G1 X120.825 Y106.003 E5.32440
G1 X121.672 Y106.183 E5.42915
G1 X127.446 Y100.409 E6.41616
G1 X128.474 Y100.409 E6.54041
G1 X122.951 Y105.932 E7.48460
G1 X124.084 Y105.691 E7.62469
G1 X124.328 Y105.583 E7.65695
G1 X129.417 Y100.494 E8.52685
G1 X129.260 Y100.975 E8.58803
G1 X128.462 Y102.359 E8.78117
G1 X127.394 Y103.545 E8.97410
G1 X126.836 Y104.103 E9.06936
G1 E7.06936 F2400.00000
G92 E0
G1 X118.455 Y105.288 F7800.000
G1 E2.00000 F2400.00000
G1 F1800
G1 X122.977 Y100.766 E2.77307
G1 X121.949 Y100.766 E2.89732
G1 X117.769 Y104.946 E3.61189
G1 X117.174 Y104.514 E3.70085
G1 X121.279 Y100.409 E4.40251
G1 X120.251 Y100.409 E4.52676
G1 X116.584 Y104.076 E5.15358
G1 X116.097 Y103.535 E5.24156
G1 X119.223 Y100.409 E5.77592
G1 X118.195 Y100.409 E5.90017
G1 X115.610 Y102.994 E6.34206
G1 X115.539 Y102.915 E6.35495
G1 X115.217 Y102.359 E6.43258
G1 X117.167 Y100.409 E6.76585
G1 X116.139 Y100.409 E6.89010
G1 X114.841 Y101.707 E7.11197
G1 X114.740 Y101.531 E7.13653
G1 X114.556 Y100.965 E7.20851
G1 X115.111 Y100.409 E7.30349
G1 E5.30349 F2400.00000
G92 E0
G1 X122.000 Y108.778 F7800.000
G1 E2.00000 F2400.00000
G1 F1800
G1 X122.000 Y109.258 E2.00856
G1 F1800
G1 X122.000 Y109.738 E2.02488
G1 F1800
G1 X122.000 Y121.759 E2.62725
G1 E0.62725 F2400.00000
G92 E0
G1 X98.193 Y106.786 F7800.000
G1 E2.00000 F2400.00000
G1 F1800
G1 X98.528 Y109.973 E2.38054
G1 X98.551 Y109.973 E2.38326
G1 X98.551 Y122.116 E3.82546
G1 X97.449 Y122.116 E3.95626
G1 X97.449 Y109.973 E5.39847
G1 X97.472 Y109.973 E5.40119
G1 X97.807 Y106.786 E5.78173
G1 X98.133 Y106.786 E5.82043
G1 E3.82043 F2400.00000
G92 E0
G1 X98.454 Y99.973 F7800.000
G1 E2.00000 F2400.00000
G1 F1800
G1 X106.150 Y99.973 E2.91401
G1 X105.639 Y101.545 E3.11040
G1 X104.765 Y103.059 E3.31800
G1 X103.595 Y104.358 E3.52561
G1 X102.181 Y105.386 E3.73322
G1 X100.584 Y106.097 E3.94083
G1 X98.000 Y106.646 E4.25456
G1 X95.416 Y106.097 E4.56829
G1 X93.819 Y105.386 E4.77589
G1 X92.405 Y104.358 E4.98350
G1 X91.235 Y103.059 E5.19112
G1 X90.361 Y101.545 E5.39872
G1 X89.850 Y99.973 E5.59511
G1 X97.546 Y99.973 E6.50911
G1 X97.744 Y98.090 E6.73393
G1 X97.825 Y97.950 E6.75315
G1 X97.966 Y97.885 E6.77160
G1 X98.036 Y97.886 E6.77986
G1 X98.131 Y97.918 E6.79175
G1 X98.212 Y97.990 E6.80465
G1 X98.256 Y98.090 E6.81760
G1 X98.448 Y99.913 E7.03529
G1 X99.097 Y99.258 F7800.000
G1 F1800
G1 X106.963 Y99.258 E7.96947
G1 X106.881 Y100.032 E8.06186
G1 X106.295 Y101.837 E8.28730
G1 X105.346 Y103.481 E8.51273
G1 X104.076 Y104.892 E8.73817
G1 X102.540 Y106.008 E8.96361
G1 X100.806 Y106.780 E9.18904
G1 X98.952 Y107.174 E9.41416
G1 X99.171 Y109.258 E9.66312
G1 X99.265 Y109.258 E9.67428
G1 X99.265 Y122.830 E11.28612
G1 X96.735 Y122.830 E11.58656
G1 X96.735 Y109.258 E13.19840
G1 X96.829 Y109.258 E13.20956
G1 X97.048 Y107.174 E13.45852
G1 X95.194 Y106.780 E13.68364
G1 X93.460 Y106.008 E13.90907
G1 X91.925 Y104.892 E14.13451
G1 X90.654 Y103.481 E14.35995
G1 X89.705 Y101.837 E14.58539
G1 X89.119 Y100.032 E14.81082
G1 X89.037 Y99.258 E14.90321
G1 X96.903 Y99.258 E15.83739
G1 X97.042 Y97.941 E15.99476
G1 X97.105 Y97.746 E16.01909
G1 X97.207 Y97.568 E16.04342
G1 X97.344 Y97.416 E16.06774
G1 X97.510 Y97.296 E16.09206
G1 X97.697 Y97.212 E16.11639
G1 X97.894 Y97.171 E16.14025
G1 X98.113 Y97.172 E16.16634
G1 X98.303 Y97.212 E16.18932
G1 X98.490 Y97.296 E16.21365
G1 X98.656 Y97.416 E16.23797
G1 X98.793 Y97.568 E16.26229
G1 X98.895 Y97.746 E16.28662
G1 X98.958 Y97.941 E16.31095
G1 X99.091 Y99.199 E16.46120
G1 X99.740 Y98.544 F7800.000
G1 F1800
G1 X107.756 Y98.544 E17.41321
G1 X107.584 Y100.181 E17.60871
G1 X106.951 Y102.129 E17.85197
G1 X105.927 Y103.903 E18.09524
G1 X104.556 Y105.425 E18.33851
G1 X102.899 Y106.629 E18.58177
G1 X101.028 Y107.463 E18.82504
G1 X99.729 Y107.738 E18.98270
G1 X99.814 Y108.544 E19.07892
G1 X99.979 Y108.544 E19.09853
G1 X99.979 Y123.544 E20.88000
G1 X96.021 Y123.544 E21.35007
G1 X96.021 Y108.544 E23.13155
G1 X96.186 Y108.544 E23.15116
G1 X96.271 Y107.738 E23.24738
G1 X94.972 Y107.463 E23.40504
G1 X93.101 Y106.629 E23.64831
G1 X91.444 Y105.425 E23.89157
G1 X90.073 Y103.903 E24.13484
G1 X89.049 Y102.129 E24.37811
G1 X88.416 Y100.181 E24.62137
G1 X88.244 Y98.544 E24.81687
G1 X96.260 Y98.544 E25.76888
G1 X96.339 Y97.791 E25.85880
G1 X96.449 Y97.454 E25.90096
G1 X96.627 Y97.146 E25.94312
G1 X96.864 Y96.883 E25.98526
G1 X97.151 Y96.674 E26.02742
G1 X97.475 Y96.530 E26.06958
G1 X97.821 Y96.456 E26.11156
G1 X98.191 Y96.459 E26.15549
G1 X98.525 Y96.530 E26.19599
G1 X98.849 Y96.674 E26.23815
G1 X99.136 Y96.883 E26.28031
G1 X99.373 Y97.146 E26.32245
G1 X99.551 Y97.454 E26.36461
G1 X99.661 Y97.791 E26.40677
G1 X99.734 Y98.485 E26.48956
G1 X99.763 Y98.944 F7800.000
G1 E24.48956 F2400.00000
G92 E0
G1 X98.000 Y99.482 F7800.000
G1 E2.00000 F2400.00000
G1 F1800
G1 X98.000 Y99.765 E2.00270
G1 F1800
G1 X98.000 Y100.330 E2.01702
G1 X98.779 Y100.964 F7800.000
G1 F1800
G1 X98.555 Y100.964 E2.04403
G1 X98.555 Y101.188 E2.07105
G1 X99.334 Y100.409 E2.20422
G1 X100.362 Y100.409 E2.32847
G1 X95.166 Y105.605 E3.21671
G1 X95.360 Y105.691 E3.24237
G1 X95.977 Y105.822 E3.31857
G1 X101.390 Y100.409 E4.24397
G1 X102.418 Y100.409 E4.36823
G1 X96.825 Y106.003 E5.32443
G1 X97.672 Y106.183 E5.42919
G1 X103.446 Y100.409 E6.41620
G1 X104.474 Y100.409 E6.54045
G1 X98.951 Y105.932 E7.48465
G1 X100.084 Y105.691 E7.62473
G1 X100.328 Y105.583 E7.65699
G1 X105.417 Y100.494 E8.52688
G1 X105.260 Y100.975 E8.58805
G1 X104.461 Y102.359 E8.78120
G1 X103.394 Y103.545 E8.97412
G1 X102.836 Y104.103 E9.06939
G1 E7.06939 F2400.00000
G92 E0
G1 X94.455 Y105.288 F7800.000
G1 E2.00000 F2400.00000
G1 F1800
G1 X98.977 Y100.766 E2.77307
G1 X97.949 Y100.766 E2.89732
G1 X93.769 Y104.946 E3.61189
G1 X93.174 Y104.514 E3.70085
G1 X97.279 Y100.409 E4.40251
G1 X96.251 Y100.409 E4.52677
G1 X92.584 Y104.076 E5.15358
G1 X92.097 Y103.535 E5.24156
G1 X95.223 Y100.409 E5.77592
G1 X94.195 Y100.409 E5.90017
G1 X91.610 Y102.994 E6.34206
G1 X91.538 Y102.915 E6.35496
G1 X91.217 Y102.359 E6.43258
G1 X93.167 Y100.409 E6.76586
G1 X92.139 Y100.409 E6.89011
G1 X90.841 Y101.707 E7.11198
G1 X90.740 Y101.531 E7.13654
G1 X90.556 Y100.965 E7.20852
G1 X91.111 Y100.409 E7.30350
G1 E5.30350 F2400.00000
G92 E0
G1 X98.000 Y108.778 F7800.000
G1 E2.00000 F2400.00000
G1 F1800
G1 X98.000 Y109.258 E2.00856
G1 F1800
G1 X98.000 Y109.738 E2.02488
G1 F1800
G1 X98.000 Y121.759 E2.62726
M104 S200 ; set temperature
M140 S60 ; set bed temperature
G1 Z0.700 F7800.000
G1 E0.62726 F2400.00000
G92 E0
G1 X120.833 Y99.180 F7800.000
G1 E2.00000 F2400.00000
G1 F3600
G1 X120.965 Y97.924 E2.06599
G1 X121.033 Y97.714 E2.07754
G1 X121.144 Y97.522 E2.08911
G1 X121.292 Y97.358 E2.10066
G1 X121.471 Y97.228 E2.11222
G1 X121.673 Y97.138 E2.12378
G1 X121.880 Y97.094 E2.13484
G1 X122.142 Y97.099 E2.14854
G1 X122.327 Y97.138 E2.15840
G1 X122.529 Y97.228 E2.16996
G1 X122.708 Y97.358 E2.18152
G1 X122.856 Y97.522 E2.19307
G1 X122.967 Y97.714 E2.20463
G1 X123.035 Y97.924 E2.21619
G1 X123.167 Y99.180 E2.28218
G1 X131.049 Y99.180 E2.69398
G1 X130.958 Y100.048 E2.73958
G1 X130.366 Y101.869 E2.83960
G1 X129.409 Y103.527 E2.93963
G1 X128.128 Y104.950 E3.03966
G1 X126.579 Y106.075 E3.13968
G1 X124.830 Y106.854 E3.23971
G1 X123.037 Y107.235 E3.33550
G1 X123.241 Y109.180 E3.43767
G1 X123.295 Y109.180 E3.44048
G1 X123.295 Y122.908 E4.15769
G1 X120.705 Y122.908 E4.29299
G1 X120.705 Y109.180 E5.01019
G1 X120.759 Y109.180 E5.01300
G1 X120.963 Y107.235 E5.11518
G1 X119.170 Y106.854 E5.21096
G1 X117.421 Y106.075 E5.31099
G1 X115.872 Y104.950 E5.41102
G1 X114.591 Y103.527 E5.51104
G1 X113.634 Y101.869 E5.61107
G1 X113.042 Y100.048 E5.71110
G1 X112.951 Y99.180 E5.75669
G1 X120.773 Y99.180 E6.16536
G1 X120.456 Y98.761 F7800.000
G1 F3600
G1 X120.553 Y97.837 E6.21394
G1 X120.649 Y97.543 E6.23010
G1 X120.803 Y97.275 E6.24626
G1 X121.010 Y97.045 E6.26242
G1 X121.260 Y96.863 E6.27858
G1 X121.543 Y96.737 E6.29474
G1 X121.840 Y96.674 E6.31060
G1 X122.190 Y96.681 E6.32890
G1 X122.457 Y96.737 E6.34316
G1 X122.740 Y96.863 E6.35932
G1 X122.990 Y97.045 E6.37548
G1 X123.197 Y97.275 E6.39163
G1 X123.351 Y97.543 E6.40779
G1 X123.447 Y97.837 E6.42395
G1 X123.544 Y98.761 E6.47253
G1 X131.514 Y98.761 E6.88894
G1 X131.370 Y100.136 E6.96114
G1 X130.751 Y102.041 E7.06577
G1 X129.750 Y103.775 E7.17039
G1 X128.410 Y105.263 E7.27502
G1 X126.790 Y106.440 E7.37965
G1 X124.960 Y107.255 E7.48427
G1 X123.493 Y107.567 E7.56266
G1 X123.618 Y108.761 E7.62542
G1 X123.714 Y108.761 E7.63041
G1 X123.714 Y123.327 E8.39139
G1 X120.286 Y123.327 E8.57045
G1 X120.286 Y108.761 E9.33143
G1 X120.382 Y108.761 E9.33641
G1 X120.507 Y107.567 E9.39918
G1 X119.040 Y107.255 E9.47756
G1 X117.210 Y106.440 E9.58219
G1 X115.590 Y105.263 E9.68682
G1 X114.250 Y103.775 E9.79145
G1 X113.249 Y102.041 E9.89607
G1 X112.630 Y100.136 E10.00070
G1 X112.486 Y98.761 E10.07290
G1 X120.396 Y98.761 E10.48617
G1 X120.098 Y98.364 F7800.000
G1 F1800
G1 X120.162 Y97.754 E10.51494
G1 X120.284 Y97.380 E10.53334
G1 X120.480 Y97.040 E10.55174
G1 X120.743 Y96.748 E10.57014
G1 X121.061 Y96.517 E10.58854
G1 X121.419 Y96.357 E10.60694
G1 X121.802 Y96.276 E10.62525
G1 X122.235 Y96.284 E10.64558
G1 X122.581 Y96.357 E10.66210
G1 X122.939 Y96.517 E10.68051
G1 X123.257 Y96.748 E10.69891
G1 X123.520 Y97.040 E10.71731
G1 X123.716 Y97.380 E10.73571
G1 X123.838 Y97.754 E10.75411
G1 X123.902 Y98.364 E10.78288
G1 X131.956 Y98.364 E11.16019
G1 X131.761 Y100.219 E11.24756
G1 X131.116 Y102.203 E11.34529
G1 X130.073 Y104.010 E11.44303
G1 X128.677 Y105.560 E11.54076
G1 X126.989 Y106.786 E11.63849
G1 X125.084 Y107.635 E11.73623
G1 X123.925 Y107.881 E11.79171
G1 X123.976 Y108.364 E11.81448
G1 X124.111 Y108.364 E11.82081
G1 X124.111 Y123.724 E12.54042
G1 X119.889 Y123.724 E12.73821
G1 X119.889 Y108.364 E13.45782
G1 X120.024 Y108.364 E13.46415
G1 X120.075 Y107.881 E13.48692
G1 X118.916 Y107.635 E13.54240
G1 X117.011 Y106.786 E13.64014
G1 X115.323 Y105.560 E13.73787
G1 X113.927 Y104.010 E13.83560
G1 X112.884 Y102.203 E13.93334
G1 X112.239 Y100.219 E14.03107
G1 X112.044 Y98.364 E14.11844
G1 X120.038 Y98.364 E14.49294
G1 X120.498 Y98.361 F7800.000
G1 X121.141 Y98.543 F7800.000
G1 F1200
G1 X121.198 Y98.001 E14.52174
G1 X122.952 Y99.755 E14.65281
G1 X122.882 Y99.086 E14.68838
G1 X121.360 Y97.564 E14.80207
G1 X121.519 Y97.430 E14.81306
G1 X121.640 Y97.376 E14.82010
G1 X121.748 Y97.353 E14.82589
G1 X122.811 Y98.416 E14.90538
G1 E12.90538 F2400.00000
G92 E0
G1 X130.747 Y99.762 F7800.000
G1 E2.00000 F2400.00000
G1 F1200
G1 X130.421 Y99.436 E2.02435
G1 X129.822 Y99.436 E2.05601
